lib/radiotmp/nrk-media-playlist-add-next.svg

<svg width="24" height="24" viewBox="0 0 24 24" fill="none" xmlns="http://www.w3.org/2000/svg">
<g opacity="0.3">
<path d="M13 5H22V7H13V5Z" fill="black"/>
<path d="M11 11H22V13H11V11Z" fill="black"/>
<path d="M22 17H8V19H22V17Z" fill="black"/>
</g>
<path d="M8.5 3H6.12964L7.21606 5H2V19H4V7H7.21606L6.12964 9H8.5L10.1296 6L8.5 3Z" fill="black"/>
</svg>

<svg xmlns="http://www.w3.org/2000/svg" viewBox="0 0 24 24"><g fill="#000" opacity=".3"><path d="M13 5h9v2h-9V5ZM11 11h11v2H11v-2ZM22 17H8v2h14v-2Z"/></g><path fill="#000" d="M8.5 3H6.13l1.086 2H2v14h2V7h3.216L6.13 9H8.5l1.63-3L8.5 3Z"/></svg>
